X: 22912
T: Larry Grogan
R: jig
M: 6/8
K: Gmajor
d/c/|BGB BGB|AFA ABc|ded cAF|GBd g2 d/c/|
BGB BGB|AFA ABc|d/e/fd cAF|GAG g2:|
d/e/|=f3 edc|Bcd dBG|=f3 e^fg|A>BA A2 d/e/|
=f3 edc|Bcd dBG|B/c/dB cAF|GAG G2:|

